svg/folder_music.svg

<?xml version="1.0" encoding="UTF-8"?><!DOCTYPE svg PUBLIC "-//W3C//DTD SVG 1.1//EN" "http://www.w3.org/Graphics/SVG/1.1/DTD/svg11.dtd"><svg xmlns="http://www.w3.org/2000/svg" xmlns:xlink="http://www.w3.org/1999/xlink" version="1.1" id="mdi-folder-music" width="24" height="24" viewBox="0 0 24 24"><path d="M10 4L12 6H20C21.1 6 22 6.89 22 8V18C22 19.1 21.1 20 20 20H4C2.89 20 2 19.1 2 18L2 6C2 4.89 2.89 4 4 4H10M19 9H15.5V13.06L15 13C13.9 13 13 13.9 13 15C13 16.11 13.9 17 15 17C16.11 17 17 16.11 17 15V11H19V9Z" /></svg>

<svg xmlns="http://www.w3.org/2000/svg" viewBox="0 0 24 24"><path d="m10 4 2 2h8a2 2 0 0 1 2 2v10c0 1.1-.9 2-2 2H4a2 2 0 0 1-2-2V6c0-1.11.89-2 2-2zm9 5h-3.5v4.06L15 13a2 2 0 1 0 0 4c1.11 0 2-.89 2-2v-4h2z"/></svg>
